chevron-down-box-outline.svg

<svg fill="currentColor" viewBox="0 0 24 24"><path d="M19 3H5a2 2 0 0 0-2 2v14a2 2 0 0 0 2 2h14c1.11 0 2-.89 2-2V5a2 2 0 0 0-2-2m0 16H5V5h14zM7.41 8.29 12 12.88l4.59-4.59L18 9.71l-6 6-6-6z"/></svg>

<svg  viewBox="0 0 24 24" fill="currentColor"><path  d="M19,3H5A2,2 0 0,0 3,5V19C3,20.11 3.9,21 5,21H19C20.11,21 21,20.11 21,19V5A2,2 0 0,0 19,3M19,19H5V5H19V19M7.41,8.29L12,12.88L16.59,8.29L18,9.71L12,15.71L6,9.71L7.41,8.29Z"/></svg>
